svg/blobs-icons/no-decorations/cloud.svg

<svg xmlns="http://www.w3.org/2000/svg" xmlns:xlink="http://www.w3.org/1999/xlink" preserveAspectRatio="xMidYMid" width="216" height="124" viewBox="0 0 216 124"><defs><style>.cls-3{fill:#2476ff}.cls-4{fill:#000;opacity:.35}</style></defs><g id="group-101svg"><path d="M.009 95.165c0-27.398 14.69-44.89 32.925-44.89 8.051.0 15.378 4.061 21.108 11.257C60.561 26.273 82.044.011 107.587.011s47.037 25.225 53.557 60.483c11.023-13.842 28.556-21.843 44.081 4.749 6.886 11.792 10.324 27.261 10.324 42.947.0 8.566-4.62200000000001 15.508-10.323 15.508H10.359C4.671 123.698.055 116.786.037 108.241L.009 95.165z" id="path-1" class="cls-3" fill-rule="evenodd"/><path d="M134.202 67.229C140.986 58.71 150.238 52.417 159.969 55.027 152.327 22.666 131.785.011 107.587.011 99.693.011 92.19 2.533 85.393 7.04c23.429 2.906 42.697 27.139 48.809 60.189z" id="path-2" class="cls-4" fill-rule="evenodd"/><path d="M31.988 50.333C25.043 50.568 18.662 53.354 13.446 58.268 18.55 59.97 23.2 63.37 27.099 68.267 28.265 61.962 29.928 55.963 31.988 50.333z" id="path-3" class="cls-4" fill-rule="evenodd"/><path d="M205.225 65.243C191.137 41.112 175.395 45.47 164.365 56.825 169.034 59.405 173.744 64.204 178.283 71.979 185.168 83.77 188.606 99.238 188.606 114.926 188.606 118.186 187.93 121.202 186.787 123.698h18.439C210.927 123.698 215.549 116.756 215.549 108.19 215.549 92.504 212.11 77.035 205.225 65.243z" id="path-4" class="cls-4" fill-rule="evenodd"/></g></svg>

<svg xmlns="http://www.w3.org/2000/svg" xmlns:xlink="http://www.w3.org/1999/xlink" preserveAspectRatio="xMidYMid" width="216" height="124" viewBox="0 0 216 124">
  <defs>
    <style>

      .cls-3 {
        fill: #2476ff;
      }

      .cls-4 {
        fill: #000000;
        opacity: 0.35;
      }
    </style>
  </defs>
  <g id="group-101svg">
    <path d="M0.009,95.165 C0.009,67.767 14.699,50.275 32.934,50.275 C40.985,50.275 48.312,54.336 54.042,61.532 C60.561,26.273 82.044,0.011 107.587,0.011 C133.130,0.011 154.624,25.236 161.144,60.494 C172.167,46.652 189.700,38.651 205.225,65.243 C212.111,77.035 215.549,92.504 215.549,108.190 C215.549,108.190 215.549,108.190 215.549,108.190 C215.549,116.756 210.927,123.698 205.226,123.698 C205.226,123.698 10.359,123.698 10.359,123.698 C4.671,123.698 0.055,116.786 0.037,108.241 C0.037,108.241 0.009,95.165 0.009,95.165 Z" id="path-1" class="cls-3" fill-rule="evenodd"/>
    <path d="M134.202,67.229 C140.986,58.710 150.238,52.417 159.969,55.027 C152.327,22.666 131.785,0.011 107.587,0.011 C99.693,0.011 92.190,2.533 85.393,7.040 C108.822,9.946 128.090,34.179 134.202,67.229 Z" id="path-2" class="cls-4" fill-rule="evenodd"/>
    <path d="M31.988,50.333 C25.043,50.568 18.662,53.354 13.446,58.268 C18.550,59.970 23.200,63.370 27.099,68.267 C28.265,61.962 29.928,55.963 31.988,50.333 Z" id="path-3" class="cls-4" fill-rule="evenodd"/>
    <path d="M205.225,65.243 C191.137,41.112 175.395,45.470 164.365,56.825 C169.034,59.405 173.744,64.204 178.283,71.979 C185.168,83.770 188.606,99.238 188.606,114.926 C188.606,118.186 187.930,121.202 186.787,123.698 C186.787,123.698 205.226,123.698 205.226,123.698 C210.927,123.698 215.549,116.756 215.549,108.190 C215.549,92.504 212.110,77.035 205.225,65.243 Z" id="path-4" class="cls-4" fill-rule="evenodd"/>
  </g>
</svg>
